icons/upload-16.svg

<svg width="16" height="16" viewBox="0 0 16 16" fill="none" xmlns="http://www.w3.org/2000/svg">
<path fill-rule="evenodd" clip-rule="evenodd" d="M2.75 14C1.7835 14 1 13.2165 1 12.25L1 9.74998C1 9.33577 1.33579 8.99998 1.75 8.99998C2.16421 8.99998 2.5 9.33577 2.5 9.74998L2.5 12.25C2.5 12.3881 2.61193 12.5 2.75 12.5L13.25 12.5C13.3881 12.5 13.5 12.3881 13.5 12.25V9.74998C13.5 9.33577 13.8358 8.99998 14.25 8.99998C14.6642 8.99998 15 9.33577 15 9.74998V12.25C15 13.2165 14.2165 14 13.25 14L2.75 14Z" fill="black"/>
<path d="M11.7803 4.71967C12.0732 5.01256 12.0732 5.48744 11.7803 5.78033C11.4874 6.07322 11.0126 6.07322 10.7197 5.78033L8.75 3.81066L8.75 9.49998C8.75 9.91419 8.41421 10.25 8 10.25C7.58578 10.25 7.25 9.91419 7.25 9.49998L7.25 3.81066L5.28033 5.78033C4.98744 6.07322 4.51256 6.07322 4.21967 5.78033C3.92678 5.48744 3.92678 5.01256 4.21967 4.71967L7.46967 1.46967C7.76256 1.17678 8.23744 1.17678 8.53033 1.46967L11.7803 4.71967Z" fill="black"/>
</svg>

<svg xmlns="http://www.w3.org/2000/svg" width="16" height="16" viewBox="0 0 16 16"><path d="M2.75 14A1.75 1.75 0 0 1 1 12.25v-2.5a.75.75 0 0 1 1.5 0v2.5c0 .138.112.25.25.25h10.5a.25.25 0 0 0 .25-.25v-2.5a.75.75 0 0 1 1.5 0v2.5A1.75 1.75 0 0 1 13.25 14Z"/><path d="M11.78 4.72a.749.749 0 1 1-1.06 1.06L8.75 3.811V9.5a.75.75 0 0 1-1.5 0V3.811L5.28 5.78a.749.749 0 1 1-1.06-1.06l3.25-3.25a.749.749 0 0 1 1.06 0l3.25 3.25Z"/></svg>
